flaticon/symbols/fortitude.svg

<svg xmlns="http://www.w3.org/2000/svg" width="32" height="32" viewBox="0 0 24 24">
    <path d="M 24 0.398438 C 24 0.394531 23.996094 0.390625 23.996094 0.386719 C 23.996094 0.339844 23.988281 0.292969 23.96875 0.246094 C 23.96875 0.242188 23.964844 0.238281 23.960938 0.234375 C 23.945312 0.195312 23.921875 0.160156 23.890625 0.128906 C 23.882812 0.121094 23.871094 0.109375 23.859375 0.101562 C 23.835938 0.078125 23.808594 0.0625 23.777344 0.046875 C 23.765625 0.0390625 23.753906 0.03125 23.738281 0.0273438 C 23.695312 0.0117188 23.648438 0 23.601562 0 L 0.398438 0 C 0.351562 0 0.304688 0.0117188 0.261719 0.0273438 C 0.246094 0.03125 0.234375 0.0390625 0.222656 0.046875 C 0.191406 0.0625 0.164062 0.078125 0.140625 0.101562 C 0.128906 0.113281 0.117188 0.121094 0.109375 0.128906 C 0.078125 0.160156 0.0546875 0.195312 0.0351562 0.238281 C 0.0351562 0.238281 0.03125 0.242188 0.03125 0.246094 C 0.0117188 0.292969 0.00390625 0.339844 0.00390625 0.386719 C 0.00390625 0.390625 0 0.394531 0 0.398438 L 0 23.601562 C 0 23.605469 0.00390625 23.609375 0.00390625 23.613281 C 0.00390625 23.660156 0.0117188 23.707031 0.03125 23.753906 C 0.03125 23.757812 0.0351562 23.761719 0.0351562 23.765625 C 0.0546875 23.804688 0.078125 23.839844 0.109375 23.871094 C 0.117188 23.878906 0.128906 23.890625 0.140625 23.898438 C 0.164062 23.921875 0.191406 23.9375 0.222656 23.953125 C 0.234375 23.960938 0.246094 23.96875 0.261719 23.972656 C 0.304688 23.988281 0.351562 24 0.398438 24 L 23.601562 24 C 23.648438 24 23.695312 23.988281 23.738281 23.972656 C 23.753906 23.96875 23.765625 23.960938 23.777344 23.953125 C 23.808594 23.9375 23.835938 23.921875 23.859375 23.898438 C 23.871094 23.890625 23.882812 23.878906 23.890625 23.871094 C 23.921875 23.839844 23.945312 23.804688 23.960938 23.765625 C 23.964844 23.761719 23.96875 23.757812 23.96875 23.753906 C 23.988281 23.707031 23.996094 23.660156 23.996094 23.613281 C 23.996094 23.609375 24 23.605469 24 23.601562 Z M 22.632812 0.800781 L 12 11.433594 L 1.367188 0.800781 Z M 23.199219 1.367188 L 23.199219 22.632812 L 12.566406 12 Z M 11.433594 12 L 0.800781 22.632812 L 0.800781 1.367188 Z M 1.367188 23.199219 L 12 12.566406 L 22.632812 23.199219 Z M 1.367188 23.199219"/>
    <path d="M3.863281 21.601562C3.863281 21.820312 4.042969 22 4.261719 22L19.738281 22C19.957031 22 20.136719 21.820312 20.136719 21.601562 20.136719 21.378906 19.957031 21.199219 19.738281 21.199219L4.261719 21.199219C4.042969 21.199219 3.863281 21.378906 3.863281 21.601562zM10.800781 14.398438C10.800781 14.621094 10.980469 14.800781 11.199219 14.800781L12.800781 14.800781C13.019531 14.800781 13.199219 14.621094 13.199219 14.398438 13.199219 14.179688 13.019531 14 12.800781 14L11.199219 14C10.980469 14 10.800781 14.179688 10.800781 14.398438zM8.800781 16.800781C8.800781 17.019531 8.980469 17.199219 9.199219 17.199219L14.800781 17.199219C15.019531 17.199219 15.199219 17.019531 15.199219 16.800781 15.199219 16.578125 15.019531 16.398438 14.800781 16.398438L9.199219 16.398438C8.980469 16.398438 8.800781 16.578125 8.800781 16.800781zM6.398438 19.199219C6.398438 19.421875 6.578125 19.601562 6.800781 19.601562L17.199219 19.601562C17.421875 19.601562 17.601562 19.421875 17.601562 19.199219 17.601562 18.980469 17.421875 18.800781 17.199219 18.800781L6.800781 18.800781C6.578125 18.800781 6.398438 18.980469 6.398438 19.199219zM20.136719 2.398438C20.136719 2.179688 19.957031 2 19.738281 2L4.261719 2C4.042969 2 3.863281 2.179688 3.863281 2.398438 3.863281 2.621094 4.042969 2.800781 4.261719 2.800781L19.738281 2.800781C19.957031 2.800781 20.136719 2.621094 20.136719 2.398438zM13.199219 9.601562C13.199219 9.378906 13.019531 9.199219 12.800781 9.199219L11.199219 9.199219C10.980469 9.199219 10.800781 9.378906 10.800781 9.601562 10.800781 9.820312 10.980469 10 11.199219 10L12.800781 10C13.019531 10 13.199219 9.820312 13.199219 9.601562zM15.199219 7.199219C15.199219 6.980469 15.019531 6.800781 14.800781 6.800781L9.199219 6.800781C8.980469 6.800781 8.800781 6.980469 8.800781 7.199219 8.800781 7.421875 8.980469 7.601562 9.199219 7.601562L14.800781 7.601562C15.019531 7.601562 15.199219 7.421875 15.199219 7.199219zM17.601562 4.800781C17.601562 4.578125 17.421875 4.398438 17.199219 4.398438L6.800781 4.398438C6.578125 4.398438 6.398438 4.578125 6.398438 4.800781 6.398438 5.019531 6.578125 5.199219 6.800781 5.199219L17.199219 5.199219C17.421875 5.199219 17.601562 5.019531 17.601562 4.800781zM17.601562 4.800781"/>
</svg>

<svg xmlns="http://www.w3.org/2000/svg" width="32" height="32" viewBox="0 0 24 24">
    <path d="M24 .398c0-.003-.004-.007-.004-.011a.36.36 0 0 0-.027-.14c0-.005-.004-.009-.008-.013a.312.312 0 0 0-.07-.105c-.008-.008-.02-.02-.032-.027a.301.301 0 0 0-.082-.055c-.011-.008-.023-.016-.039-.02A.406.406 0 0 0 23.602 0H.398a.406.406 0 0 0-.257.102L.109.129a.36.36 0 0 0-.074.11S.031.241.031.245a.36.36 0 0 0-.027.14C.004.392 0 .396 0 .399v23.204c0 .003.004.007.004.011a.36.36 0 0 0 .027.14c0 .005.004.009.004.013.02.039.043.074.074.105.008.008.02.02.032.027.023.024.05.04.082.055A.406.406 0 0 0 .399 24h23.203a.406.406 0 0 0 .257-.102c.012-.007.024-.02.032-.027a.312.312 0 0 0 .07-.105c.004-.004.008-.008.008-.012a.36.36 0 0 0 .027-.14c0-.005.004-.009.004-.012zm-1.367.403L12 11.434 1.367.8zm.566.566v21.266L12.566 12zM11.434 12L.8 22.633V1.367zM1.367 23.2L12 12.565 22.633 23.2zm0 0"/>
    <path d="M3.863 21.602a.4.4 0 0 0 .399.398h15.476a.4.4 0 0 0 0-.8H4.262a.401.401 0 0 0-.399.402zm0 0M10.8 14.398c0 .223.18.403.4.403h1.6a.401.401 0 0 0 0-.801h-1.6a.4.4 0 0 0-.4.398zm0 0M8.8 16.8a.4.4 0 0 0 .4.4h5.6a.4.4 0 0 0 0-.802H9.2a.401.401 0 0 0-.4.403zm0 0M6.398 19.2c0 .222.18.402.403.402h10.398a.401.401 0 0 0 0-.8L6.801 18.8a.401.401 0 0 0-.403.398zm0 0M20.137 2.398A.4.4 0 0 0 19.738 2H4.262a.4.4 0 0 0 0 .8h15.476c.219 0 .399-.179.399-.402zm0 0M13.2 9.602a.401.401 0 0 0-.4-.403h-1.6a.401.401 0 0 0 0 .801h1.6a.4.4 0 0 0 .4-.398zm0 0M15.2 7.2a.4.4 0 0 0-.4-.4H9.2a.4.4 0 0 0 0 .802h5.6c.22 0 .4-.18.4-.403zm0 0M17.602 4.8a.402.402 0 0 0-.403-.402H6.801a.401.401 0 0 0 0 .8l10.398.001c.223 0 .403-.18.403-.398zm0 0"/>
</svg>
